resources/svg/netlify-o.svg

<svg xmlns="http://www.w3.org/2000/svg" viewBox="0 0 15 15" fill="none"><path d="M0.5 7.5L0.146447 7.14645C-0.0488155 7.34171 -0.0488155 7.65829 0.146447 7.85355L0.5 7.5ZM7.5 0.5L7.85355 0.146447C7.65829 -0.0488155 7.34171 -0.0488155 7.14645 0.146447L7.5 0.5ZM14.5 7.5L14.8536 7.85355C15.0488 7.65829 15.0488 7.34171 14.8536 7.14645L14.5 7.5ZM7.5 14.5L7.14645 14.8536C7.34171 15.0488 7.65829 15.0488 7.85355 14.8536L7.5 14.5ZM0.853553 7.85355L7.85355 0.853553L7.14645 0.146447L0.146447 7.14645L0.853553 7.85355ZM7.14645 0.853553L14.1464 7.85355L14.8536 7.14645L7.85355 0.146447L7.14645 0.853553ZM14.1464 7.14645L7.14645 14.1464L7.85355 14.8536L14.8536 7.85355L14.1464 7.14645ZM7.85355 14.1464L0.853553 7.14645L0.146447 7.85355L7.14645 14.8536L7.85355 14.1464ZM4.3143 3.96424L14.3143 7.96424L14.6857 7.03576L4.6857 3.03576L4.3143 3.96424ZM8.58021 1.72837L3.08021 10.2284L3.91979 10.7716L9.41979 2.27163L8.58021 1.72837ZM2.1 5.8L8.1 13.8L8.9 13.2L2.9 5.2L2.1 5.8ZM0.393785 7.98859L11.8938 10.4886L12.1062 9.51141L0.606215 7.01141L0.393785 7.98859ZM2.71404 9.95187L12.214 5.45187L11.786 4.54813L2.28596 9.04813L2.71404 9.95187ZM10.0061 3.42202L8.50612 12.922L9.49388 13.078L10.9939 3.57798L10.0061 3.42202Z" fill="black"/></svg>

<svg xmlns="http://www.w3.org/2000/svg" viewBox="0 0 15 15" fill="none"><path d="M.5 7.5l-.354-.354a.5.5 0 000 .708L.5 7.5zm7-7l.354-.354a.5.5 0 00-.708 0L7.5.5zm7 7l.354.354a.5.5 0 000-.708L14.5 7.5zm-7 7l-.354.354a.5.5 0 00.708 0L7.5 14.5zM.854 7.854l7-7-.708-.708-7 7 .708.708zm6.292-7l7 7 .708-.708-7-7-.708.708zm7 6.292l-7 7 .708.708 7-7-.708-.708zm-6.292 7l-7-7-.708.708 7 7 .708-.708zM4.314 3.964l10 4 .372-.928-10-4-.372.928zM8.58 1.728l-5.5 8.5.84.544 5.5-8.5-.84-.544zM2.1 5.8l6 8 .8-.6-6-8-.8.6zM.394 7.989l11.5 2.5.212-.978-11.5-2.5-.212.978zm2.32 1.963l9.5-4.5-.428-.904-9.5 4.5.428.904zm7.292-6.53l-1.5 9.5.988.156 1.5-9.5-.988-.156z" fill="currentColor"/></svg>
